!!!!SEGMENT: pl-wtm--r-2519--006_hertz-michal--kanon.krn
!!!cenid: 18xx:3089
!!!COM: Hertz, Michał
!!!COM-rismID: pe41023359
!!!CDT: 1844/09/28-~1918
!!!CNT: Polish
!!!OTL: Kanon [6]
!!!PDT:
!!!AGN:
!!!SMS-siglum: PL-Wtm
!!!SMS-shelfmark: R 2519
!!!SMS-shelfwork: 006 W
!!!SMS-variant:
!!!SMS-altvar:
!!!NIFC-rismSourceID: 1001082119
!!!NIFC-rismChildID: 1001082119
!!!NIFC-islandoraID:
!!!URL-pdf-islandora:
!!!URL-scan:
!!!IIIF:
!!!ONB-nifc: UWAGA: 9 Kanonów num. 001-009. Skan 0010-0011 (Canon in 3cia, bez szkiców ołówkiem na 0011)
!!!AIN: 1 forte
!!!key:
**kern	**kern
*part1	*part1
*staff2	*staff1
*Iforte	*Iforte
*I"Fortepian	*I"Fortepian
*>[A,B,B1,B,B2,C]	*>[A,B,B1,B,B2,C]
*>A	*>A
*clefF4	*clefG2
*k[]	*k[]
*C:	*C:
*M4/4	*M4/4
*met(c)	*met(c)
=1	=1
*^	*
1c	4.C\	1r
.	8D\	.
.	4E\	.
.	4F\	.
*v	*v	*
=2!|:	=2!|:
*>B	*>B
*	*^
8G\L	4.e/	2.B\@
8F\	.	.
8E\	.	.
8D\J	8f/	.
8E\L	4g/	.
8D\	.	.
8C\	4a/	4c\@
8BB\J	.	.
=3	=3	=3
4D\	8b/L	2d\@
.	8a/	.
8E\L	8g/	.
8F\J	8f/J	.
4E\	8g/L	[2c\@
.	8f/	.
4G\	8e/	.
.	8d/J	.
=4	=4	=4
4A\	4f/	2c\]@
8G\L	8g/L	.
8F\J	8a/J	.
*2\right	*	*
2G\	4g/	8B\L
.	.	8c\
.	4b/	8d\
.	.	8g\J
=5	=5	=5
4.E\	4cc\	4.g\
.	8b\L	.
8F#X\	8a\J	8d\
*	*2\right	*
4G\	2b\	8d\L
.	.	8e\
4A\	.	8d\
.	.	8c\J
=6	=6	=6
8B\L	4.g/	4.B\
8A\	.	.
8G\	.	.
8F#X\J	8a/	8c\
8G\L	4b/	4B\
8F#\	.	.
8E\	4cc/	4G\
8D\J	.	.
=7	=7	=7
4F#X\	8dd\L	4A\
.	8cc\	.
8G\L	8b\	8B\L
8A\J	8a\J	8c\J
4G\	8b\L	2d\
.	8a\	.
4B\	8g\	.
!	!LO:TX:a:t=P:problem=# above	!
.	8f#X\J	.
!!LO:LB:g=original
=8	=8	=8
4c\	4a/	8e\L
.	.	8fn\
4G\	8b/L	8g\
.	8cc/J	8a\J
4E\	4b/	4g\
4D\	4dd/	4f\
=9	=9	=9
!!LO:TX:a:t=I
*>B1	*>B1	*>B1
4.C/	4ee/	8g\L
.	.	8a\
.	4b/	8g\
8D\	.	[8f\J
4E\	4g/	8f\L]
.	.	8e\J
4F\	4f/	4d\
=10:|!	=10:|!	=10:|!
!!LO:TX:a:t=II
*>B2	*>B2	*>B2
4.G\	4ee/	8e\L
.	.	8f#X\
.	4b/	8g\
8F#X\	.	8d\J
4E\	4g/	4c\
4D\	4f#X/	4B\
=11	=11	=11
*>C	*>C	*>C
8E\L	4.b/	8G\L
!LO:TX:a:t=P:problem=# above	!	!
8F#X\	.	8A\
8G\	.	8B\
8A\J	8a/	8c\J
8B\L	4g/	4d\
8c\J	.	.
4d\	4f#X/	4f#\
=12	=12	=12
4e\	8g/L	4e\
.	8a/	.
8d\L	8b/	4f#X\
8c\J	8cc/J	.
4B\	8dd/L	4g\
.	8ee/J	.
4A\	4ff#X/	4d\
=13	=13	=13
4G\	4gg/	8B\L
.	.	8c\J
4A\	8ff#X/L	4d\
.	8ee/J	.
4B\	4dd/	8g\L
.	.	8a\
4e\	4cc/	8g\
.	.	8f#X\J
=14	=14	=14
8d\L	4b/	4g\
8c\	.	.
8B\	4cc/	4a\
8A\J	.	.
8G\L	4dd/	4b\
8Fn\	.	.
8E\	4gg/	4cc\
8F\J	.	.
!!LO:PB:g=original
=15	=15	=15
4A\	4f/	2c\
8G\L	8g/L	.
8F\J	8a/J	.
8E\L	4b/	2g\
8D\	.	.
8BB\	4dd/	.
8C\J	.	.
=16	=16	=16
8E\L	4cc/	8g\L
8C\	.	8e\J
8D\	8b/L	4d\
8F\J	8a/J	.
4E\	8g/L	4.B\
.	8f/	.
8D\L	8d/	.
8C\J	8e/J	8c\
=17	=17	=17
4.C\	8g/L	2.c\
.	8e/	.
.	8f/	.
8D\	8a/J	.
4E\	4g/	.
4F\	8f/L	4A\
.	8e/J	.
=18	=18	=18
8G\L	4.e/	2B\
8F\	.	.
8E\	.	.
8D\J	8f/	.
8E\L	4g/	2c\
8D\	.	.
8C\	4a/	.
8BB\J	.	.
=19	=19	=19
4D\	8b/L	2d\
.	8a/	.
8E\L	8g/	.
8F\J	8f/J	.
4E\	8g/L	2c\
.	8f/	.
4G\	8e/	.
.	8d/J	.
=20	=20	=20
4A\	4f/	2c\
8G\L	8g/L	.
8F\J	8a/J	.
2G\	4g/	8B\L
.	.	8c\
.	4b/	8d\
.	.	8g\J
!!LO:LB:g=original
=21	=21	=21
4.E\	4cc/	4.g\
.	8b/L	.
8F\	8a/J	8d\
4G\	2b/	8d\L
.	.	8e\
4A\	.	8d\
.	.	8c\J
=22	=22	=22
8B\L	4.g/	4.B\
8A\	.	.
8G\	.	.
8F\J	8a/	8c\
8G\L	4b/	4B\
8F\	.	.
8E\	4cc/	4G\
8D\J	.	.
=23	=23	=23
4F\	8dd/L	4A\
.	8cc/	.
8G\L	8b/	8B\L
8A\J	8a/J	8c\J
4G\	8b/L	4d\
.	8a/	.
4GG/	8g/	4B\
.	8f/J	.
*	*v	*v
=24	=24
1C;<	1e 1c;
==	==
*-	*-
!!!system-decoration: {(s1,s2)}
!!!RDF**kern: < = below
!!!RDF**kern: @ = marked note, color=grey
!!!ENC: Filip Voros
!!!END: 2021-10-23
!!!ENC: Marta Lawrence
!!!END: 2021-10-23
!!!YEC: Copyright 2022 Narodowy Instytut Fryderyka Chopina (https://polishscores.org)
!!!YEM: License CC-BY-4.0 (https://creativecommons.org/licenses/by/4.0)
